chains/forma/logo.svg

<svg width="190" height="190" viewBox="0 0 190 190" fill="none" xmlns="http://www.w3.org/2000/svg">
<g clip-path="url(#clip0_163_3)">
<g clip-path="url(#clip1_163_3)">
<path d="M64 64H167C167 64 167 74 167 80C167 88.6996 159.5 95.5 151 95.5C142.5 95.5 95 95.5 95 95.5V190C95 190 85 190 79 190C73 190 64 182 64 174C64 166 64 64 64 64Z" fill="#FF6B6B"/>
<path d="M-3.0059e-05 0H189.952C189.952 0 189.952 11.5969 189.952 25.9025C189.952 40.2081 178.355 51.8051 164.049 51.8051H-1.51579e-05L-3.0059e-05 0Z" fill="black"/>
<path d="M51.805 0L51.805 189.952C51.805 189.952 40.2081 189.952 25.9025 189.952C11.5969 189.952 -6.04099e-05 178.355 -6.10352e-05 164.049L-3.0059e-05 0H51.805Z" fill="black"/>
</g>
</g>
<defs>
<clipPath id="clip0_163_3">
<rect width="189.952" height="189.952" fill="white"/>
</clipPath>
<clipPath id="clip1_163_3">
<rect width="189.952" height="189.952" fill="white"/>
</clipPath>
</defs>
</svg>

<svg xmlns="http://www.w3.org/2000/svg" width="190" height="190" fill="none"><g clip-path="url(#a)"><g clip-path="url(#b)"><path fill="#FF6B6B" d="M64 64h103v16c0 8.7-7.5 15.5-16 15.5H95V190H79c-6 0-15-8-15-16V64Z"/><path fill="#000" d="M0 0h189.952v25.902c0 14.306-11.597 25.903-25.903 25.903H0V0Z"/><path fill="#000" d="M51.805 0v189.952H25.903C11.597 189.952 0 178.355 0 164.049V0h51.805Z"/></g></g><defs><clipPath id="a"><path fill="#fff" d="M0 0h189.952v189.952H0z"/></clipPath><clipPath id="b"><path fill="#fff" d="M0 0h189.952v189.952H0z"/></clipPath></defs></svg>
